X:1
T: Arr.  Manuel Ygnacio Ferrer (ca.1828 - 1904)
T:Switzer's Farewell
%%score { ( 1 2 ) ( 3 4 ) }
L:1/8
Q:1/4=72
M:3/4
K:D
V:1 treble-8 nm="Guitare classique"
V:2 treble-8 
V:3 tab stafflines=6 strings=E2,A2,D3,G3,B3,E4 nostems nm="Guitare classique [Tablature]"
V:4 tab stafflines=6 strings=E2,A2,D3,G3,B3,E4 nostems 
V:1
"^Andante""_" Ad>"_dol."e | f3 c{/c} e>d | !1!c2!<(! !arpeggio![GB]ee>f!<)! | %3
"_""^₵2"{/f} a3!>(! gBc!>)! | d3 Ad>e |"_" f3 c{/c} e>d | c2 !arpeggio![GB]^de!4!g | %7
"_""^VII"{/!4!g} !4!c'3 b"^II" !4!a!1!c |"^III" !1!d4 d>e |!<(! fd"^₵7" !>!b3!<)! !4!a | %10
 (ag)"^₵2" [Ac]2"_cresc." e>f |!<(! (ge)!<)!!>(! c'3 b!>)! | (ba) d2 f>g | %13
"_"!<(! af{/b} f'2!<)!!>(! !4!e'>!2!d'!>)! | (c'b) e2 e>f |!<(! (ge)!<)!!>(! c'>b!>)!"_dim." a>c | %16
"^Var." [Fd]4"_Sempre" d>e | f/"_"A/d/f/{/g} !>!b3 !2!a | (a/g/)(f/g/)"^₵2" !arpeggio![Ac]2 e>f | %19
 g/c/e/g/{/g} !>!c'3 b | (b/a/)(^g/a/) !arpeggio![Ad]2 f>=g | %21
"_" a/"^rall."d/f/a/"^rit."{/a} !>!e'3 d' |"^a tempo" (c'/b/)(^a/b/) !0!e2 e>f | %23
"_""_cresc." (!>!a/!<(!g/)c/e/ (!>!a/g/)c/e/!<)! (!>!c'/b/)(g/e/) | %24
 d2"_""^₵7" !arpeggio![dfd'] z"_" f>"_legg."e | e>(f e>)(f e>)d | %26
 c/!<(!e/a/b/{/b} !4!c'3!<)! d' | (!4!c'/!1!b/)!2!d/!0!e/ b3 c' | (b/a/)c/!0!e/"^₵2" a3 (B | %29
 A>)(B A>)(B A>)!0!G |!<(! F/A/d/f/!<)!{/f} a2 !arpeggio![Adf]2 | %31
"_" !arpeggio![GBe]e/f/"_cresc." (g/f/)g/a/ (b/a/)b/c'/ | %32
{/c'} d' z"_""^₵7" !arpeggio!!^![dfd']2 x2 |] %33
V:2
 z z2 | D2 F2 z2 | !2!G,2 E2 z2 | A,2 !arpeggio![EAc]2 z2 | D2 F2 z2 | D2 F2 z2 | G,2 E2 z2 | %7
 A,2 [Aeg]2 [A,G]2 | [DF]4 z2 | D2 !arpeggio![Adf]2!>(! !arpeggio![Adf]2!>)! | %10
 A,2 !arpeggio!E2 z2 | A,2 !arpeggio![Aeg]2 !arpeggio![Aeg]2 | D2 !arpeggio![FA]2 z2 | D4 F2 | %14
 G2 !arpeggio![Bd]2 z2 | A,2 !arpeggio![Aeg]2 [A,G]2 | D4 z2 | D4 !1!F2 | A,2 E2 z2 | A,4 G2 | %20
 D2 F2 z2 | D4 F2 | G2 [Bd]2 !arpeggio![G,GB]2 | A,2 G2 A,2 | [DF]2 A z z2 | E,2 ^G2 G2 | %26
 A,2 e2 e2 | E,2 !arpeggio![^Gde]2 !arpeggio![Gde]2 | A,2 !arpeggio![EAc]2 [EAc]2 | A,2 E2 A,2 | %30
 D2 z2 D2 | !2!G,2 !>!E,2 A,2 | D z D2 z2 |] %33
V:3
 !3!A, !2!D3/2 !1!E/ | !1!F3 !2!C{/!2!C} !2!E3/2 !2!D/ | !2!C2 [!3!G,!2!B,] !1!E !1!E3/2 !1!F/ | %3
{/!1!F} !1!A3 !1!G !2!B, !2!C | !2!D3 !3!A, !2!D3/2 !1!E/ | !1!F3 !2!C{/!2!C} !2!E3/2 !2!D/ | %6
 !2!C2 [!3!G,!2!B,] !2!^D !1!E !1!G |{/!1!G} !1!c3 !1!B !1!A !2!C | !2!D4 !2!D3/2 !1!E/ | %9
 !1!F !2!D !1!B3 !2!A | (!2!A !2!G) [!3!A,!2!C]2 !1!E3/2 !1!F/ | (!1!G !1!E) !1!c3 !1!B | %12
 (!1!B !1!A) !2!D2 !1!F3/2 !1!G/ | !1!A !1!F{/!1!B} !1!f2 !1!e3/2 !1!d/ | %14
 (!1!c !1!B) !1!E2 !1!E3/2 !1!F/ | (!1!G !1!E) !1!c3/2 !1!B/ !1!A3/2 !2!C/ | %16
 [!4!F,!2!D]4 !2!D3/2 !1!E/ | !1!F/ !3!A,/ !2!D/ !1!F/{/!1!G} !1!B3 !1!A | %18
 (!1!A/ !1!G/) (!1!F/ !1!G/) [!3!A,!2!C]2 !1!E3/2 !1!F/ | %19
 !1!G/ !2!C/ !1!E/ !1!G/{/!1!G} !1!c3 !1!B | %20
 (!1!B/ !1!A/) (!1!^G/ !1!A/) [!3!A,!2!D]2 !1!F3/2 !1!=G/ | %21
 !1!A/ !2!D/ !1!F/ !1!A/{/!1!A} !1!e3 !1!d | (!1!c/ !1!B/) (!1!^A/ !1!B/) !1!E2 !1!E3/2 !1!F/ | %23
 (!1!A/ !1!G/) !2!C/ !1!E/ (!1!A/ !1!G/) !2!C/ !1!E/ (!1!c/ !1!B/) (!1!G/ !1!E/) | %24
 !2!D2 [!3!D!2!F!1!d] x !1!F3/2 !1!E/ | !1!E3/2 (!1!F/ !1!E3/2) (!1!F/ !1!E3/2) !2!D/ | %26
 !2!C/ !1!E/ !1!A/ !1!B/{/!1!B} !1!c3 !1!d | (!1!c/ !1!B/) !3!D/ !2!E/ !1!B3 !1!c | %28
 (!1!B/ !1!A/) !3!C/ !1!E/ !1!A3 (!3!B, | !3!A,3/2) (!3!B,/ !3!A,3/2) (!3!B,/ !3!A,3/2) !3!G,/ | %30
 !4!F,/ !3!A,/ !2!D/ !1!F/{/!1!F} !1!A2 [!3!A,!2!D!1!F]2 | %31
 [!3!G,!2!B,!1!E] !1!E/ !1!F/ (!1!G/ !1!F/) !1!G/ !1!A/ (!1!B/ !1!A/) !1!B/ !1!c/ | %32
{/!1!c} !1!d x [!3!D!2!F!1!d]2 x2 |] %33
V:4
 x x2 | !4!D,2 !4!F,2 x2 | !6!G,,2 !4!E,2 x2 | !5!A,,2 [!4!E,!3!A,!2!C]2 x2 | !4!D,2 !4!F,2 x2 | %5
 !4!D,2 !4!F,2 x2 | !6!G,,2 !4!E,2 x2 | !5!A,,2 [!4!A,!3!E!2!G]2 [!5!A,,!3!G,]2 | %8
 [!5!D,!4!F,]4 x2 | !4!D,2 [!4!A,!3!D!2!F]2 [!4!A,!3!D!2!F]2 | !5!A,,2 !4!E,2 x2 | %11
 !5!A,,2 [!4!A,!3!E!2!G]2 [!4!A,!3!E!2!G]2 | !4!D,2 [!4!F,!3!A,]2 x2 | !4!D,4 !5!F,2 | %14
 !3!G,2 [!3!B,!2!D]2 x2 | !5!A,,2 [!4!A,!3!E!2!G]2 [!5!A,,!3!G,]2 | !5!D,4 x2 | !4!D,4 !4!F,2 | %18
 !5!A,,2 !4!E,2 x2 | !5!A,,4 !3!G,2 | !4!D,2 !4!F,2 x2 | !4!D,4 !5!F,2 | %22
 !3!G,2 [!3!B,!2!D]2 [!6!G,,!3!G,!2!B,]2 | !5!A,,2 !3!G,2 !5!A,,2 | [!5!D,!4!F,]2 !4!A, x x2 | %25
 !6!E,,2 !3!^G,2 !3!G,2 | !5!A,,2 !3!E2 !3!E2 | !6!E,,2 [!4!^G,!3!D!2!E]2 [!4!G,!3!D!2!E]2 | %28
 !5!A,,2 [!4!E,!3!A,!2!C]2 [!4!E,!3!A,!2!C]2 | !5!A,,2 !4!E,2 !5!A,,2 | !5!D,2 x2 !4!D,2 | %31
 !6!G,,2 !6!E,,2 !5!A,,2 | !4!D, x !4!D,2 x2 |] %33

